Papirus/48x48/apps/dropbox.svg

<svg xmlns="http://www.w3.org/2000/svg" width="48" height="48" version="1">
 <defs>
  <linearGradient id="linearGradient4365" x1="24" x2="28.615" y1="21" y2="25.313" gradientTransform="matrix(-1,0,0,1,48,0)" gradientUnits="userSpaceOnUse">
   <stop offset="0"/>
   <stop offset="1" stop-opacity="0"/>
  </linearGradient>
  <linearGradient id="linearGradient4373" x1="31.427" x2="12.189" y1="34.828" y2="36.388" gradientUnits="userSpaceOnUse">
   <stop offset="0"/>
   <stop offset="1" stop-opacity="0"/>
  </linearGradient>
 </defs>
 <path fill="#37a0f2" d="m24 28-8.5 4.3-3.5-1.2v5.4l12 7.5 12-7.5v-4.8l-3.5 2.2z"/>
 <path fill="url(#linearGradient4373)" opacity=".05" d="m24 28v16l12-7.5v-4.8l-3.5 2.2z"/>
 <path opacity=".2" d="m16 8-12 7.5 8 6.5 12-7-8-7zm8 7 12 7 8-6.5l-12-7.5-8 7zm12 7-12 7 8 7l12-7.5-8-6.5zm-12 7-12-7-8 6.5 12 7.5 8-7z"/>
 <path fill="#8ec3f8" d="m16 7-12 7.5 8 6.5 12-7-8-7zm8 7 12 7 8-6.5l-12-7.5-8 7zm12 7-12 7 8 7l12-7.5-8-6.5zm-12 7-12-7-8 6.5 12 7.5 8-7z"/>
 <path fill="#6db2e8" d="m36 21-12 7-12-7 12-7z"/>
 <path fill="url(#linearGradient4365)" opacity=".05" d="m12 21 12 7 0.000001-14z"/>
 <path opacity=".2" d="m12 36.5v1l12 7.5 12-7.5v-1l-12 7.5-12-7.5z"/>
 <path style="fill:#ffffff;opacity:0.1" d="M 16 7 L 4 14.5 L 4.6953125 15.064453 L 16 8 L 23.314453 14.400391 L 24 14 L 16 7 z M 24 14 L 24.685547 14.400391 L 32 8 L 43.304688 15.064453 L 44 14.5 L 32 7 L 24 14 z M 11.384766 21.5 L 4 27.5 L 4.6953125 27.935547 L 12 22 L 11.384766 21.5 z M 12 22 L 23.314453 28.599609 L 24 28 L 12.857422 21.5 L 12 22 z M 24 28 L 24.685547 28.599609 L 36 22 L 35.142578 21.5 L 24 28 z M 36 22 L 43.304688 27.935547 L 44 27.5 L 36.615234 21.5 L 36 22 z"/>
</svg>

<svg xmlns="http://www.w3.org/2000/svg" width="48" height="48" version="1">
 <path style="opacity:0.2" d="m 24.011719,29.000039 a 1.7144571,1.600235 0 0 0 -0.785157,0.171883 l -6.639509,3.136084 -2.316964,-0.742221 A 1.7144571,1.600235 0 0 0 12,33.079917 l 0,4.320516 a 1.7144571,1.600235 0 0 0 0.806919,1.356313 l 10.285715,6.000282 a 1.7144571,1.600235 0 0 0 1.816406,0 L 35.194755,38.756746 A 1.7144571,1.600235 0 0 0 36,37.400433 l 0,-3.840805 a 1.7144571,1.600235 0 0 0 -2.626674,-1.354752 l -2.040737,1.198495 -6.35491,-4.117381 a 1.7144571,1.600235 0 0 0 -0.96596,-0.285951 z"/>
 <path style="fill:#1383d9" d="m 24.011719,28.000039 a 1.7144571,1.600235 0 0 0 -0.785157,0.171883 l -6.639509,3.136084 -2.316964,-0.742221 A 1.7144571,1.600235 0 0 0 12,32.079917 l 0,4.320516 a 1.7144571,1.600235 0 0 0 0.806919,1.356313 l 10.285715,6.000282 a 1.7144571,1.600235 0 0 0 1.816406,0 L 35.194755,37.756746 A 1.7144571,1.600235 0 0 0 36,36.400433 l 0,-3.840805 a 1.7144571,1.600235 0 0 0 -2.626674,-1.354752 l -2.040737,1.198495 -6.35491,-4.117381 a 1.7144571,1.600235 0 0 0 -0.96596,-0.285951 z"/>
 <path style="opacity:0.2" d="M 16,8.0000003 4,15.5 12,22 4,28.5 16,36 24,29 32,36 44,28.5 36,22 44,15.5 32,8.0000003 24,15 16,8.0000003 Z"/>
 <path style="fill:#5aacff" d="M 16 7 L 4 14.5 L 12 21 L 4 27.5 L 16 35 L 24 28 L 32 35 L 44 27.5 L 36 21 L 44 14.5 L 32 7 L 24 14 L 16 7 z"/>
 <path style="opacity:0.2" d="M 36,22 24,29 12,22 24,15 Z"/>
 <path style="fill:#ffffff" d="m36 21-12 7-12-7 12-7z"/>
 <path style="fill:#ffffff;opacity:0.2" d="M 16 7 L 4 14.5 L 4.6953125 15.064453 L 16 8 L 24 15 L 32 8 L 43.304688 15.064453 L 44 14.5 L 32 7 L 24 14 L 16 7 z M 11.384766 21.5 L 4 27.5 L 4.6953125 27.935547 L 12 22 L 11.384766 21.5 z M 36.615234 21.5 L 36 22 L 43.304688 27.935547 L 44 27.5 L 36.615234 21.5 z"/>
</svg>
